svgs/sharp-light/subtitles.svg

<svg xmlns="http://www.w3.org/2000/svg" viewBox="0 0 576 512"><!--! Font Awesome Pro 6.6.0 by @fontawesome - https://fontawesome.com License - https://fontawesome.com/license (Commercial License) Copyright 2024 Fonticons, Inc. --><path d="M32 64l0 384 512 0 0-384L32 64zM0 32l32 0 512 0 32 0 0 32 0 384 0 32-32 0L32 480 0 480l0-32L0 64 0 32zM112 256l192 0 16 0 0 32-16 0-192 0-16 0 0-32 16 0zm256 0l96 0 16 0 0 32-16 0-96 0-16 0 0-32 16 0zM112 352l96 0 16 0 0 32-16 0-96 0-16 0 0-32 16 0zm160 0l192 0 16 0 0 32-16 0-192 0-16 0 0-32 16 0z"/></svg>

<svg xmlns="http://www.w3.org/2000/svg" viewBox="0 0 576 512"><!--! Font Awesome Pro 6.4.2 by @fontawesome - https://fontawesome.com License - https://fontawesome.com/license (Commercial License) Copyright 2023 Fonticons, Inc. --><path d="M32 64V448H544V64H32zM0 32H32 544h32V64 448v32H544 32 0V448 64 32zM112 256H304h16v32H304 112 96V256h16zm256 0h96 16v32H464 368 352V256h16zM112 352h96 16v32H208 112 96V352h16zm160 0H464h16v32H464 272 256V352h16z"/></svg>
